!!!!SEGMENT: pl-wtm--r-1588--006_stefani-jozef--antiphonae-ad-vesperas-hymnus.krn
!!!cenid: 18xx:2347
!!!COM: Stefani, Józef
!!!COM-rismID: pe30024097
!!!CDT: 1800/04/16-1876/03/19
!!!CNT: Polish
!!!OPR: Antiphonae ad Vesperas
!!!OTL: Hymnus
!!!OMV: 006
!!!PDT:
!!!AGN: Sacred; Vespers
!!!SMS-siglum: PL-Wtm
!!!SMS-shelfmark: R 1588
!!!SMS-shelfwork: 001-006 M
!!!SMS-variant:
!!!SMS-altvar:
!!!NIFC-rismSourceID: 1001115605
!!!NIFC-rismChildID: 1001115605
!!!NIFC-islandoraID: pl-wtm:27328
!!!URL-pdf-islandora: https://repozytorium.nifc.pl/islandora/object/pl-wtm%3A27328/datastream/PDF/view
!!!URL-scan: https://polish.musicsources.pl/pl/lokalizacje/galeria/rekopisy/6382 @EN{Scan on Polish Music Sources Website} @PL{Skany w portalu Dziedzictwo Muzyki Polskiej w otwartym dostępie}
!!!IIIF:
!!!ONB-nifc: UWAGA: części: 4 Antyfony (001-004), Hymnus (005) i Magnificat (006)
!!!OMD: Andantino.
!!!AIN: 1 empty 2 tenor
!!!key:
**kern	**text	**dynam	**kern	**kern	**text	**dynam
*part3	*part3	*part3	*part2	*part1	*part1	*part1
*staff3	*staff3	*	*staff2	*staff1	*staff1	*
*Iempty	*	*	*Itenor	*Itenor	*	*
*I"Basſo	*	*	*I"Tenore 2º.	*I"Tenore 1º.	*	*
*clefF4	*	*	*clefC4	*clefC4	*	*
*k[f#c#g#]	*	*	*k[c#f#g#]	*k[c#f#g#]	*	*
*A:	*	*	*A:	*A:	*	*
*M4/2	*	*	*M4/2	*M4/2	*	*
*all\right	*	*	*all\right	*all\right	*	*
=1	=1	=1	=1	=1	=1	=1
*	*	*	*2\right	*2\right	*	*
!	!	!LO:DY:rj	!	!LO:TX:a:t=Hymnus	!	!LO:DY:rj
2AA/	.	p	2A\	2c#\	A-	p
2AA/	.	<	2A\	2c#\	-ve	<
2AA/	.	.	2A\	2c#\	ma-	.
2AA/	.	[[	2A\	2c#\	-ris	[[
=2	=2	=2	=2	=2	=2	=2
1E	.	>	1G#	1B	Stel-	>
1AA	.	]	1A	1c#	-la,	]]
!!LO:PB:g=original
=3	=3	=3	=3	=3	=3	=3
2BB/	De-	.	2F#/	2e\	De-	.
2BB/	-i	.	2G#/	2d\	-i	.
2AA/	ma-	.	2A/	2c#\	ma-	.
*2\right	*	*	*	*	*	*
2E\	-ter	.	2G#/	2B\	-ter	.
=4	=4	=4	=4	=4	=4	=4
1AA	al-	.	1A	1c#	al-	.
1AA	-ma,	.	1A	1c#	-ma,	.
=5	=5	=5	=5	=5	=5	=5
2E\	At-	.	2G#/	2B\	At-	.
2E\	-que	.	2G#/	2B\	-que	<
2A\	sem-	.	2A/	2c#\	sem-	.
2F#\	-per	.	2A/	2d#X\	-per	.
=6	=6	=6	=6	=6	=6	=6
1E	vir-	.	1G#	1e	vir-	.
1AA	-go	.	1A	1c#	-go	[
!!LO:PB:g=original
=7	=7	=7	=7	=7	=7	=7
!	!	!	!	!	!	!LO:DY:rj
2BB/	Fe-	.	2G#/	2B\	Fe-	f
2BB/	-lix	.	2G#/	2e\	-lix	.
2BB/	cae-	.	2F#/	2e\	cae-	.
2BB/	-li	.	2F#/	2d#X\	-li	.
=8	=8	=8	=8	=8	=8	=8
1E	por-	.	1G#	1e	por-	.
1E	-ta.	.	1G#	1e	-ta.	.
=9	=9	=9	=9	=9	=9	=9
!	!	!	!	!	!	!LO:DY:rj
2D\	Su-	.	2A/	2f#\	Su-	p
2D\	-mens	.	2A/	2f#\	-mens	.
2D\	il-	.	2F#/	2d\	il-	.
2D\	-lud	.	2F#/	2B\	-lud	.
=10	=10	=10	=10	=10	=10	=10
1.E	A-	.	1E	1G#	A-	.
.	.	.	1G#	1B	-ve	.
2D\	-ve	.	.	.	.	.
!!LO:LB:g=original
=11	=11	=11	=11	=11	=11	=11
!	!	!LO:DY:rj	!	!	!	!LO:DY:rj
2C#/	Ga-	f	2A\	2A\	Ga-	f
2C#/	-bri-	.	2A\	2e\	-bri-	.
2BB/	-e-	.	2G#\	2d\	-e-	.
2AA/	-lis	.	2A\	2c#\	-lis	.
=12	=12	=12	=12	=12	=12	=12
1E;	o-	>	1A;	1c#;	o-	.
1E;	-re,	]	1G#;	1B;	-re,	.
=13	=13	=13	=13	=13	=13	=13
!	!	!LO:DY:rj	!	!	!	!LO:DY:rj
2AA/	Fun-	pp	2A\	2c#\	Fun-	pp <
2AA/	-da	<	2A\	2c#\	-da	.
2AA/	nos	.	2A\	2c#\	nos	.
2AA/	in	[	2A\	2c#\	in	[[
=14	=14	=14	=14	=14	=14	=14
1E	pa-	>	1G#	1B	pa-	>
1AA	-ce,	]	1A	1c#	-ce,	]
!!LO:LB:g=original
=15	=15	=15	=15	=15	=15	=15
2BB/	Mu-	.	2F#/	2e\	Mu-	.
2BB/	-tans	.	2F#/	2d\	-tans	.
2E\	He-	.	2A/	2c#\	He-	.
2E\	-vae	.	2G#/	2B\	-vae	.
=16	=16	=16	=16	=16	=16	=16
1AA	no-	.	1A	1c#	no-	<
1C#	-men	.	1A	1e	-men	[[
=17	=17	=17	=17	=17	=17	=17
!	!	!LO:DY:rj	!	!	!	!LO:DY:rj
2BB/	Mu-	f	2F#/	2e\	Mu-	f
2BB/	-tans	.	2F#/	2d\	-tans	.
2E\	He-	.	2A/	2c#\	He-	.
2E\	-vae	.	2G#/	2B\	-vae	.
=18	=18	=18	=18	=18	=18	=18
1E	no-	>	1G#	1B	no-	>
!	!	!	!LO:TX:b:t=Seque\nMagnificat	!	!	!
1A 1AA	-men.	]	1A	1A	-men.	]
==	==	==	==	==	==	==
*-	*-	*-	*-	*-	*-	*-
!!!system-decoration: {s1,s2,s3}
!!!ENC: Marta Lawrence
!!!END: 2021-06-13
!!!ENC: Andrzej Gręziak
!!!END: 2021-06-04
!!!YEC: Copyright 2022 Narodowy Instytut Fryderyka Chopina (https://polishscores.org)
!!!YEM: License CC-BY-4.0 (https://creativecommons.org/licenses/by/4.0)
